Sources/FrostedUI/Resources/Icons.xcassets/star20.imageset/star-20.svg

<svg width="20" height="20" viewBox="0 0 20 20" fill="none" xmlns="http://www.w3.org/2000/svg" data-fui-icon="true">
  <path
    d="M8.13257 1.57452C8.95382 0.142132 11.0445 0.142318 11.866 1.57452L11.9441 1.72198L13.7937 5.57257L18.0554 6.13116C19.8475 6.36609 20.5833 8.58076 19.2546 9.83331L16.1453 12.763L16.9265 16.9505C17.261 18.7453 15.3631 20.0926 13.782 19.2405L9.99976 17.2015L6.21753 19.2405C4.63662 20.0922 2.73866 18.7453 3.073 16.9505L3.85327 12.763L0.743896 9.83331C-0.584452 8.58075 0.152235 6.36618 1.94409 6.13116L6.20386 5.57257L8.05542 1.72198L8.13257 1.57452ZM10.5916 2.37238C10.3535 1.87688 9.64508 1.87688 9.40698 2.37238L7.35913 6.63605L7.31812 6.70734C7.21443 6.8674 7.04468 6.97601 6.85229 7.00128L2.13843 7.61847C1.59114 7.69084 1.37223 8.36331 1.77319 8.74152L5.21851 11.9905C5.38018 12.143 5.45348 12.3663 5.41284 12.5843L4.54761 17.2259C4.45357 17.7322 4.95144 18.1287 5.41382 17.9612L5.50562 17.9202L9.68726 15.6663C9.88219 15.5613 10.1173 15.5614 10.3123 15.6663L14.4939 17.9202C14.9488 18.1651 15.4807 17.8152 15.4626 17.3255L15.4519 17.2259L14.5867 12.5843C14.5461 12.3667 14.6189 12.143 14.78 11.9905L18.2263 8.74152C18.6275 8.36309 18.4081 7.69021 17.8601 7.61847L13.1472 7.00128C12.9546 6.97593 12.7841 6.86774 12.6804 6.70734L12.6404 6.63605L10.5916 2.37238Z"
    fill="currentColor"
  />
</svg>

<svg xmlns="http://www.w3.org/2000/svg" width="20" height="20" fill="none" data-fui-icon="true" viewBox="0 0 20 20"><path fill="currentColor" d="M8.133 1.575c.82-1.433 2.912-1.433 3.733 0l.078.147 1.85 3.85 4.261.56c1.793.234 2.528 2.449 1.2 3.701l-3.11 2.93.782 4.188c.334 1.794-1.564 3.142-3.145 2.29L10 17.2l-3.782 2.04c-1.581.851-3.48-.496-3.145-2.29l.78-4.188-3.11-2.93C-.583 8.581.154 6.366 1.945 6.131l4.26-.558 1.851-3.851zm2.459.797a.658.658 0 0 0-1.185 0L7.359 6.636l-.04.071a.66.66 0 0 1-.467.294l-4.714.617a.653.653 0 0 0-.365 1.124L5.22 11.99a.65.65 0 0 1 .194.593l-.865 4.642a.656.656 0 0 0 .866.735l.092-.04 4.181-2.255a.66.66 0 0 1 .625 0l4.182 2.254a.657.657 0 0 0 .969-.594l-.011-.1-.865-4.642a.65.65 0 0 1 .193-.593l3.446-3.25a.653.653 0 0 0-.366-1.123l-4.713-.617a.66.66 0 0 1-.467-.294l-.04-.07z"/></svg>
